status/symbolic/weather-few-clouds-night-symbolic.svg

<svg enable-background="new" height="16" width="16" xmlns="http://www.w3.org/2000/svg">
  <path d="m7.3999134 2.0276843c-2.210253.0811338-4.2470158 1.4433403-5.0500663 3.6491817-1.0110772 2.777249.2949398 5.858343 2.9500388 7.04842-.074561-.269907-.1175056-.565409-.1000013-.84981.0221602-.80082.4671821-1.509557 1.1000144-1.974557-1.2535205-1.386241-1.7084944-3.3964066-1.0250135-5.2738176.4113334-1.1298666 1.1795675-2.0062381 2.1250279-2.5994171zm.1500019 8.8980057c-.3336523.137417-.6063759.38908-.7000091.749832-.2121388.659827.2684835 1.403317.9500124 1.499663 1.4368351-.05919 2.7996454-.64835 3.8000504-1.674625v-.124971c-1.024742.299605-2.1453884.317872-3.2250429-.074943-.2896038-.105385-.5669994-.226062-.8250108-.374916z" fill="#bebebe" />
  <ellipse cx="9.741002" cy="4.541849" fill="#8c5f5f" opacity="0" rx="5.599918" ry="5.5989" transform="matrix(.9397187 .34194848 -.34209182 .93966653 0 0)" />
  <path d="m9.9999477 8.401256c-1.049358 0-1.9238815.68659-2.2500298 1.624635-.9846769.124749-1.7500229.956241-1.7500229 1.974558 0 1.104319.8954438 1.999551 2.0000262 1.999551h4.4000578c.883668 0 1.600021-.716183 1.600021-1.599641 0-.883459-.716353-1.599642-1.600021-1.599642 0-1.325182-1.074534-2.399461-2.4000313-2.399461z" fill="#bebebe" />
</svg>

<?xml version="1.0" encoding="UTF-8" standalone="no"?>
<!-- Created with Inkscape (http://www.inkscape.org/) -->

<svg
   xmlns:osb="http://www.openswatchbook.org/uri/2009/osb"
   xmlns:dc="http://purl.org/dc/elements/1.1/"
   xmlns:cc="http://creativecommons.org/ns#"
   xmlns:rdf="http://www.w3.org/1999/02/22-rdf-syntax-ns#"
   xmlns:svg="http://www.w3.org/2000/svg"
   xmlns="http://www.w3.org/2000/svg"
   xmlns:sodipodi="http://sodipodi.sourceforge.net/DTD/sodipodi-0.dtd"
   xmlns:inkscape="http://www.inkscape.org/namespaces/inkscape"
   sodipodi:docname="weather-few-clouds-night-symbolic.svg"
   inkscape:export-filename="/home/sam/source-symbolic.png"
   inkscape:export-xdpi="270"
   inkscape:export-ydpi="270"
   height="16"
   id="svg7384"
   style="enable-background:new"
   version="1.1"
   inkscape:version="0.91 r13725"
   width="16">
  <sodipodi:namedview
     inkscape:bbox-nodes="true"
     inkscape:bbox-paths="true"
     bordercolor="#666666"
     borderlayer="false"
     borderopacity="1"
     inkscape:current-layer="svg7384"
     inkscape:cx="6.3979179"
     inkscape:cy="19.627185"
     gridtolerance="10"
     inkscape:guide-bbox="true"
     guidetolerance="10"
     id="namedview88"
     inkscape:object-nodes="true"
     inkscape:object-paths="true"
     objecttolerance="10"
     pagecolor="#f7f7f7"
     inkscape:pageopacity="1"
     inkscape:pageshadow="2"
     showborder="true"
     showgrid="false"
     showguides="true"
     inkscape:showpageshadow="false"
     inkscape:snap-bbox="true"
     inkscape:snap-bbox-edge-midpoints="false"
     inkscape:snap-bbox-midpoints="false"
     inkscape:snap-center="false"
     inkscape:snap-global="true"
     inkscape:snap-grids="true"
     inkscape:snap-intersection-paths="true"
     inkscape:snap-midpoints="true"
     inkscape:snap-nodes="true"
     inkscape:snap-object-midpoints="true"
     inkscape:snap-others="true"
     inkscape:snap-page="false"
     inkscape:snap-smooth-nodes="true"
     inkscape:snap-to-guides="true"
     inkscape:window-height="701"
     inkscape:window-maximized="0"
     inkscape:window-width="1362"
     inkscape:window-x="0"
     inkscape:window-y="28"
     inkscape:zoom="22.627417">
    <inkscape:grid
       color="#000000"
       dotted="false"
       empcolor="#0800ff"
       empopacity="0.4627451"
       empspacing="4"
       enabled="true"
       id="grid4866"
       opacity="0.16470588"
       originx="-183.99818px"
       originy="-548px"
       snapvisiblegridlinesonly="true"
       spacingx="0.25px"
       spacingy="0.25px"
       type="xygrid"
       visible="true" />
  </sodipodi:namedview>
  <metadata
     id="metadata90">
    <rdf:RDF>
      <cc:Work
         rdf:about="">
        <dc:format>image/svg+xml</dc:format>
        <dc:type
           rdf:resource="http://purl.org/dc/dcmitype/StillImage" />
        <dc:title>Paper Symbolic Icon Theme</dc:title>
      </cc:Work>
    </rdf:RDF>
  </metadata>
  <title
     id="title8473">Paper Symbolic Icon Theme</title>
  <defs
     id="defs7386">
    <linearGradient
       id="linearGradient5606"
       osb:paint="solid">
      <stop
         id="stop5608"
         offset="0"
         style="stop-color:#000000;stop-opacity:1;" />
    </linearGradient>
  </defs>
  <path
     inkscape:connector-curvature="0"
     d="M 7.3999134,2.0276843 C 5.1896604,2.1088181 3.1528976,3.4710246 2.3498471,5.676866 1.3387699,8.454115 2.6447869,11.535209 5.2998859,12.725286 5.2253249,12.455379 5.1823803,12.159877 5.1998846,11.875476 5.2220448,11.074656 5.6670667,10.365919 6.299899,9.900919 5.0463785,8.514678 4.5914046,6.5045124 5.2748855,4.6271014 5.6862189,3.4972348 6.454453,2.6208633 7.3999134,2.0276843 Z M 7.5499153,10.92569 c -0.3336523,0.137417 -0.6063759,0.38908 -0.7000091,0.749832 -0.2121388,0.659827 0.2684835,1.403317 0.9500124,1.499663 1.4368351,-0.05919 2.7996454,-0.64835 3.8000504,-1.674625 l 0,-0.124971 C 10.575227,11.675194 9.4545806,11.693461 8.3749261,11.300646 8.0853223,11.195261 7.8079267,11.074584 7.5499153,10.92573 Z"
     id="path6240"
     style="color:#bebebe;display:inline;overflow:visible;visibility:visible;fill:#bebebe;fill-opacity:1;fill-rule:nonzero;stroke:none;stroke-width:1;marker:none;enable-background:accumulate" />
  <ellipse
     cx="9.7410021"
     cy="4.5418491"
     id="path6317"
     style="color:#bebebe;display:inline;overflow:visible;visibility:visible;opacity:0;fill:#8c5f5f;fill-opacity:1;fill-rule:nonzero;stroke:none;stroke-width:1;marker:none;enable-background:accumulate"
     transform="matrix(0.9397187,0.34194848,-0.34209182,0.93966653,0,0)"
     rx="5.5999179"
     ry="5.5988998" />
  <path
     inkscape:connector-curvature="0"
     d="m 9.9999477,8.401256 c -1.049358,0 -1.9238815,0.68659 -2.2500298,1.624635 C 6.765241,10.15064 5.999895,10.982132 5.999895,12.000449 5.999895,13.104768 6.8953388,14 7.9999212,14 l 4.4000578,0 C 13.283647,14 14,13.283817 14,12.400359 14,11.5169 13.283647,10.800717 12.399979,10.800717 c 0,-1.325182 -1.074534,-2.399461 -2.4000313,-2.399461 z"
     id="path6258"
     style="display:inline;fill:#bebebe;fill-opacity:1;stroke:none;enable-background:new" />
</svg>
